; generated by Slic3r 1.33.8-prusa3d on 2017-03-13 at 22:25:53

; external perimeters extrusion width = 0.40mm
; perimeters extrusion width = 0.67mm
; infill extrusion width = 0.67mm
; solid infill extrusion width = 0.67mm
; top infill extrusion width = 0.67mm

M107
M104 S210 ; set temperature

M109 S210 ; set temperature and wait for it to be reached
G21 ; set units to millimeters
G90 ; use absolute coordinates
M82 ; use absolute distances for extrusion
G92 E0
G1 Z0.350 F7800.000
G1 E-1.00000 F2700.00000
G92 E0
G1 Z0.450 F7800.000
G1 X85.332 Y85.299 F7800.000
G1 Z0.350 F7800.000
G1 E1.00000 F2700.00000
G1 F1800
G1 X85.760 Y84.909 E1.05260
G1 X86.226 Y84.555 E1.10578
G1 X86.721 Y84.244 E1.15896
G1 X87.235 Y83.980 E1.21156
G1 X87.771 Y83.761 E1.26416
G1 X88.330 Y83.589 E1.31733
G1 X88.902 Y83.467 E1.37051
G1 X89.482 Y83.395 E1.42369
G1 X89.990 Y83.375 E1.46994
G1 X110.006 Y83.375 E3.28998
G1 X110.654 Y83.407 E3.34893
G1 X111.301 Y83.504 E3.40846
G1 X111.930 Y83.663 E3.46742
G1 X112.540 Y83.882 E3.52637
G1 X113.126 Y84.159 E3.58533
G1 X113.682 Y84.493 E3.64428
G1 X114.203 Y84.879 E3.70323
G1 X114.688 Y85.319 E3.76276
G1 X115.123 Y85.799 E3.82172
G1 X115.509 Y86.320 E3.88067
G1 X115.842 Y86.876 E3.93963
G1 X116.120 Y87.463 E3.99858
G1 X116.338 Y88.073 E4.05753
G1 X116.496 Y88.702 E4.11649
G1 X116.593 Y89.349 E4.17602
G1 X116.625 Y89.997 E4.23497
G1 X116.625 Y110.006 E6.05444
G1 X116.605 Y110.515 E6.10068
G1 X116.534 Y111.095 E6.15386
G1 X116.412 Y111.667 E6.20704
G1 X116.240 Y112.226 E6.26022
G1 X116.019 Y112.768 E6.31339
G1 X115.752 Y113.288 E6.36657
G1 X115.439 Y113.782 E6.41975
G1 X115.085 Y114.247 E6.47293
G1 X114.690 Y114.679 E6.52611
G1 X114.210 Y115.115 E6.58506
G1 X113.685 Y115.505 E6.64459
G1 X113.129 Y115.839 E6.70354
G1 X112.537 Y116.120 E6.76308
G1 X111.927 Y116.338 E6.82203
G1 X111.298 Y116.496 E6.88098
G1 X110.651 Y116.593 E6.94051
G1 X110.003 Y116.625 E6.99947
G1 X89.994 Y116.625 E8.81893
G1 X89.485 Y116.605 E8.86518
G1 X88.905 Y116.534 E8.91836
G1 X88.333 Y116.412 E8.97153
G1 X87.774 Y116.240 E9.02471
G1 X87.232 Y116.019 E9.07789
G1 X86.712 Y115.752 E9.13107
G1 X86.218 Y115.439 E9.18425
G1 X85.753 Y115.085 E9.23742
G1 X85.321 Y114.690 E9.29060
G1 X84.885 Y114.210 E9.34956
G1 X84.498 Y113.690 E9.40851
G1 X84.164 Y113.135 E9.46746
G1 X83.883 Y112.543 E9.52699
G1 X83.663 Y111.933 E9.58595
G1 X83.505 Y111.305 E9.64490
G1 X83.408 Y110.663 E9.70386
G1 X83.375 Y110.010 E9.76339
G1 X83.375 Y89.994 E11.58343
G1 X83.395 Y89.485 E11.62968
G1 X83.465 Y88.911 E11.68228
G1 X83.587 Y88.339 E11.73545
G1 X83.756 Y87.786 E11.78805
G1 X83.976 Y87.244 E11.84123
G1 X84.239 Y86.729 E11.89383
G1 X84.550 Y86.234 E11.94701
G1 X84.899 Y85.773 E11.99961
G1 X85.290 Y85.341 E12.05254
G1 E11.05254 F2700.00000
G92 E0
G1 Z0.450 F7800.000
G1 X90.350 Y90.350 F7800.000
G1 Z0.350 F7800.000
G1 E1.00000 F2700.00000
G1 F1800
G1 X109.650 Y90.350 E2.75494
G1 X109.650 Y109.650 E4.50988
G1 X90.350 Y109.650 E6.26482
G1 X90.350 Y90.410 E8.01431
G1 X90.736 Y90.454 F7800.000
G1 X90.975 Y90.975 F7800.000
G1 F1800
G1 X109.025 Y90.975 E9.65561
G1 X109.025 Y109.025 E11.29691
G1 X90.975 Y109.025 E12.93821
G1 X90.975 Y91.035 E14.57405
G1 X91.600 Y91.600 F7800.000
G1 F1800
G1 X108.400 Y91.600 E16.10171
G1 X108.400 Y108.400 E17.62936
G1 X91.600 Y108.400 E19.15702
G1 X91.600 Y91.660 E20.67922
G1 X91.850 Y106.886 F7800.000
G1 F1800
G1 X92.833 Y107.869 E20.80574
G1 X93.717 Y107.869 E20.88624
G1 X92.131 Y106.283 E21.09040
G1 X92.131 Y105.398 E21.17090
G1 X94.602 Y107.869 E21.48890
G1 X95.486 Y107.869 E21.56940
G1 X92.131 Y104.514 E22.00124
G1 X92.131 Y103.629 E22.08174
G1 X96.371 Y107.869 E22.62742
G1 X97.255 Y107.869 E22.70791
G1 X92.131 Y102.745 E23.36743
G1 X92.131 Y101.860 E23.44792
G1 X98.140 Y107.869 E24.22128
G1 X99.024 Y107.869 E24.30177
G1 X92.131 Y100.976 E25.18897
G1 X92.131 Y100.091 E25.26946
G1 X99.909 Y107.869 E26.27049
G1 X100.793 Y107.869 E26.35099
G1 X92.131 Y99.207 E27.46586
G1 X92.131 Y98.322 E27.54635
G1 X101.678 Y107.869 E28.77506
G1 X102.562 Y107.869 E28.85555
G1 X92.131 Y97.438 E30.19810
G1 X92.131 Y96.553 E30.27859
G1 X103.447 Y107.869 E31.73498
G1 X104.331 Y107.869 E31.81547
G1 X92.131 Y95.669 E33.38569
G1 X92.131 Y94.784 E33.46619
G1 X105.216 Y107.869 E35.15024
G1 X106.100 Y107.869 E35.23074
G1 X92.131 Y93.900 E37.02863
G1 X92.131 Y93.015 E37.10913
G1 X106.985 Y107.869 E39.02086
G1 X107.869 Y107.869 E39.10136
G1 X92.131 Y92.131 E41.12693
G1 X93.015 Y92.131 E41.20742
G1 X107.869 Y106.985 E43.11917
G1 X107.869 Y106.100 E43.19967
G1 X93.900 Y92.131 E44.99757
G1 X94.784 Y92.131 E45.07807
G1 X107.869 Y105.216 E46.76214
G1 X107.869 Y104.331 E46.84263
G1 X95.669 Y92.131 E48.41287
G1 X96.553 Y92.131 E48.49336
G1 X107.869 Y103.447 E49.94976
G1 X107.869 Y102.562 E50.03025
G1 X97.438 Y92.131 E51.37281
G1 X98.322 Y92.131 E51.45330
G1 X107.869 Y101.678 E52.68202
G1 X107.869 Y100.793 E52.76252
G1 X99.207 Y92.131 E53.87740
G1 X100.091 Y92.131 E53.95789
G1 X107.869 Y99.909 E54.95893
G1 X107.869 Y99.024 E55.03943
G1 X100.976 Y92.131 E55.92663
G1 X101.860 Y92.131 E56.00713
G1 X107.869 Y98.140 E56.78050
G1 X107.869 Y97.255 E56.86099
G1 X102.745 Y92.131 E57.52052
G1 X103.629 Y92.131 E57.60102
G1 X107.869 Y96.371 E58.14671
G1 X107.869 Y95.486 E58.22720
G1 X104.514 Y92.131 E58.65906
G1 X105.398 Y92.131 E58.73955
G1 X107.869 Y94.602 E59.05757
G1 X107.869 Y93.717 E59.13806
G1 X106.283 Y92.131 E59.34224
G1 X107.167 Y92.131 E59.42274
G1 X108.150 Y93.114 E59.54927
M104 S205 ; set temperature
G1 Z0.550 F7800.000
G1 X109.800 Y90.200 F7800.000
G1 F1800
G1 X109.800 Y109.800 E60.13122
G1 X90.200 Y109.800 E60.71317
G1 X90.200 Y90.200 E61.29512
G1 X109.740 Y90.200 E61.87528
G1 X109.696 Y90.586 F7800.000
G1 X109.307 Y90.693 F7800.000
G1 F3600
G1 X109.307 Y109.307 E62.84780
G1 X90.693 Y109.307 E63.82032
G1 X90.693 Y90.693 E64.79284
G1 X109.247 Y90.693 E65.76222
G1 X108.679 Y91.321 F7800.000
G1 F3600
G1 X108.679 Y108.679 E66.66909
G1 X91.321 Y108.679 E67.57595
G1 X91.321 Y91.321 E68.48282
G1 X108.619 Y91.321 E69.38655
G1 X91.572 Y92.845 F7800.000
G1 F1200
G1 X92.562 Y91.855 E69.45985
G1 X93.453 Y91.855 E69.50647
G1 X91.855 Y93.453 E69.62476
G1 X91.855 Y94.343 E69.67138
G1 X94.343 Y91.855 E69.85560
G1 X95.234 Y91.855 E69.90222
G1 X91.855 Y95.234 E70.15237
G1 X91.855 Y96.124 E70.19898
G1 X96.124 Y91.855 E70.51506
G1 X97.015 Y91.855 E70.56168
G1 X91.855 Y97.015 E70.94368
G1 X91.855 Y97.905 E70.99030
G1 X97.905 Y91.855 E71.43823
G1 X98.795 Y91.855 E71.48484
G1 X91.855 Y98.795 E71.99870
G1 X91.855 Y99.686 E72.04532
G1 X99.686 Y91.855 E72.62510
G1 X100.576 Y91.855 E72.67172
G1 X91.855 Y100.576 E73.31743
G1 X91.855 Y101.467 E73.36405
G1 X101.467 Y91.855 E74.07568
G1 X102.357 Y91.855 E74.12230
G1 X91.855 Y102.357 E74.89987
G1 X91.855 Y103.248 E74.94648
G1 X103.248 Y91.855 E75.78997
G1 X104.138 Y91.855 E75.83659
G1 X91.855 Y104.138 E76.74601
G1 X91.855 Y105.028 E76.79263
G1 X105.028 Y91.855 E77.76797
G1 X105.919 Y91.855 E77.81459
G1 X91.855 Y105.919 E78.85586
G1 X91.855 Y106.809 E78.90248
G1 X106.809 Y91.855 E80.00968
G1 X107.700 Y91.855 E80.05630
G1 X91.855 Y107.700 E81.22942
G1 X91.855 Y108.145 E81.25274
G1 X92.300 Y108.145 E81.27604
G1 X108.145 Y92.300 E82.44918
G1 X108.145 Y93.191 E82.49579
G1 X93.191 Y108.145 E83.60300
G1 X94.081 Y108.145 E83.64962
G1 X108.145 Y94.081 E84.69090
G1 X108.145 Y94.972 E84.73752
G1 X94.972 Y108.145 E85.71287
G1 X95.862 Y108.145 E85.75949
G1 X108.145 Y95.862 E86.66892
G1 X108.145 Y96.752 E86.71553
G1 X96.752 Y108.145 E87.55903
G1 X97.643 Y108.145 E87.60565
G1 X108.145 Y97.643 E88.38322
G1 X108.145 Y98.533 E88.42984
G1 X98.533 Y108.145 E89.14149
G1 X99.424 Y108.145 E89.18810
G1 X108.145 Y99.424 E89.83382
G1 X108.145 Y100.314 E89.88044
G1 X100.314 Y108.145 E90.46023
G1 X101.205 Y108.145 E90.50685
G1 X108.145 Y101.205 E91.02071
G1 X108.145 Y102.095 E91.06733
G1 X102.095 Y108.145 E91.51527
G1 X102.985 Y108.145 E91.56189
G1 X108.145 Y102.985 E91.94390
G1 X108.145 Y103.876 E91.99051
G1 X103.876 Y108.145 E92.30660
G1 X104.766 Y108.145 E92.35322
G1 X108.145 Y104.766 E92.60337
G1 X108.145 Y105.657 E92.64999
G1 X105.657 Y108.145 E92.83422
G1 X106.547 Y108.145 E92.88084
G1 X108.145 Y106.547 E92.99914
G1 X108.145 Y107.438 E93.04576
G1 X107.155 Y108.428 E93.11907
G1 Z0.750 F7800.000
G1 X109.800 Y109.800 F7800.000
G1 F1800
G1 X90.200 Y109.800 E93.70101
G1 X90.200 Y90.200 E94.28296
G1 X109.800 Y90.200 E94.86491
G1 X109.800 Y109.740 E95.44508
G1 X109.414 Y109.696 F7800.000
G1 X109.307 Y109.307 F7800.000
G1 F3600
G1 X90.693 Y109.307 E96.41760
G1 X90.693 Y90.693 E97.39012
G1 X109.307 Y90.693 E98.36264
G1 X109.307 Y109.247 E99.33202
G1 X108.679 Y108.679 F7800.000
G1 F3600
G1 X91.321 Y108.679 E100.23888
G1 X91.321 Y91.321 E101.14575
G1 X108.679 Y91.321 E102.05262
G1 X108.679 Y108.619 E102.95635
G1 X108.428 Y92.845 F7800.000
G1 F1200
G1 X107.438 Y91.855 E103.02966
G1 X106.547 Y91.855 E103.07627
G1 X108.145 Y93.453 E103.19458
G1 X108.145 Y94.343 E103.24119
G1 X105.657 Y91.855 E103.42542
G1 X104.766 Y91.855 E103.47204
G1 X108.145 Y95.234 E103.72220
G1 X108.145 Y96.124 E103.76881
G1 X103.876 Y91.855 E104.08490
G1 X102.985 Y91.855 E104.13151
G1 X108.145 Y97.015 E104.51353
G1 X108.145 Y97.905 E104.56014
G1 X102.095 Y91.855 E105.00808
G1 X101.205 Y91.855 E105.05470
G1 X108.145 Y98.795 E105.56856
G1 X108.145 Y99.686 E105.61518
G1 X100.314 Y91.855 E106.19497
G1 X99.424 Y91.855 E106.24159
G1 X108.145 Y100.576 E106.88731
G1 X108.145 Y101.467 E106.93392
G1 X98.533 Y91.855 E107.64557
G1 X97.643 Y91.855 E107.69219
G1 X108.145 Y102.357 E108.46976
G1 X108.145 Y103.248 E108.51638
G1 X96.752 Y91.855 E109.35988
G1 X95.862 Y91.855 E109.40649
G1 X108.145 Y104.138 E110.31592
G1 X108.145 Y105.028 E110.36254
G1 X94.972 Y91.855 E111.33789
G1 X94.081 Y91.855 E111.38451
G1 X108.145 Y105.919 E112.42579
G1 X108.145 Y106.809 E112.47241
G1 X93.191 Y91.855 E113.57962
G1 X92.300 Y91.855 E113.62623
G1 X108.145 Y107.700 E114.79937
G1 X108.145 Y108.145 E114.82267
G1 X107.700 Y108.145 E114.84599
G1 X91.855 Y92.300 E116.01911
G1 X91.855 Y93.191 E116.06573
G1 X106.809 Y108.145 E117.17293
G1 X105.919 Y108.145 E117.21955
G1 X91.855 Y94.081 E118.26082
G1 X91.855 Y94.972 E118.30744
G1 X105.028 Y108.145 E119.28278
G1 X104.138 Y108.145 E119.32940
G1 X91.855 Y95.862 E120.23882
G1 X91.855 Y96.752 E120.28544
G1 X103.248 Y108.145 E121.12893
G1 X102.357 Y108.145 E121.17555
G1 X91.855 Y97.643 E121.95311
G1 X91.855 Y98.533 E121.99973
G1 X101.467 Y108.145 E122.71137
G1 X100.576 Y108.145 E122.75798
G1 X91.855 Y99.424 E123.40369
G1 X91.855 Y100.314 E123.45031
G1 X99.686 Y108.145 E124.03009
G1 X98.795 Y108.145 E124.07671
G1 X91.855 Y101.205 E124.59057
G1 X91.855 Y102.095 E124.63719
G1 X97.905 Y108.145 E125.08512
G1 X97.015 Y108.145 E125.13173
G1 X91.855 Y102.985 E125.51374
G1 X91.855 Y103.876 E125.56035
G1 X96.124 Y108.145 E125.87643
G1 X95.234 Y108.145 E125.92305
G1 X91.855 Y104.766 E126.17319
G1 X91.855 Y105.657 E126.21981
G1 X94.343 Y108.145 E126.40403
G1 X93.453 Y108.145 E126.45065
G1 X91.855 Y106.547 E126.56894
G1 X91.855 Y107.438 E126.61556
G1 X92.845 Y108.428 E126.68886
M106 S255
G1 Z0.950 F7800.000
G1 X90.200 Y109.800 F7800.000
G1 F1800
G1 X90.200 Y90.200 E127.27081
G1 X109.800 Y90.200 E127.85276
G1 X109.800 Y109.800 E128.43471
G1 X90.260 Y109.800 E129.01488
G1 X90.304 Y109.414 F7800.000
G1 X90.693 Y109.307 F7800.000
G1 F3600
G1 X90.693 Y90.693 E129.98740
G1 X109.307 Y90.693 E130.95992
G1 X109.307 Y109.307 E131.93243
G1 X90.753 Y109.307 E132.90182
G1 X91.321 Y108.679 F7800.000
G1 F3600
G1 X91.321 Y91.321 E133.80868
G1 X108.679 Y91.321 E134.71555
G1 X108.679 Y108.679 E135.62241
G1 X91.381 Y108.679 E136.52614
G1 X104.901 Y108.428 F7800.000
G1 F4800
G1 X108.145 Y105.184 E136.76582
G1 X108.145 Y100.741 E136.99794
G1 X100.741 Y108.145 E137.54500
G1 X96.298 Y108.145 E137.77711
G1 X108.145 Y96.298 E138.65243
G1 X108.145 Y91.855 E138.88455
G1 X91.855 Y108.145 E140.08813
G1 X91.855 Y103.702 E140.32025
G1 X103.702 Y91.855 E141.19557
G1 X99.259 Y91.855 E141.42769
G1 X91.855 Y99.259 E141.97474
G1 X91.855 Y94.816 E142.20686
G1 X95.099 Y91.572 E142.44654
G1 Z1.150 F7800.000
G1 X90.200 Y90.200 F7800.000
G1 F1800
G1 X109.800 Y90.200 E143.02849
G1 X109.800 Y109.800 E143.61044
G1 X90.200 Y109.800 E144.19239
G1 X90.200 Y90.260 E144.77255
G1 X90.586 Y90.304 F7800.000
G1 X90.693 Y90.693 F7800.000
G1 F3600
G1 X109.307 Y90.693 E145.74507
G1 X109.307 Y109.307 E146.71759
G1 X90.693 Y109.307 E147.69011
G1 X90.693 Y90.753 E148.65949
G1 X91.321 Y91.321 F7800.000
G1 F3600
G1 X108.679 Y91.321 E149.56636
G1 X108.679 Y108.679 E150.47322
G1 X91.321 Y108.679 E151.38009
G1 X91.321 Y91.381 E152.28382
G1 X91.572 Y104.901 F7800.000
G1 F4800
G1 X94.816 Y108.145 E152.52350
G1 X99.259 Y108.145 E152.75562
G1 X91.855 Y100.741 E153.30267
G1 X91.855 Y96.298 E153.53479
G1 X103.702 Y108.145 E154.41011
G1 X108.145 Y108.145 E154.64222
G1 X91.855 Y91.855 E155.84581
G1 X96.298 Y91.855 E156.07793
G1 X108.145 Y103.702 E156.95324
G1 X108.145 Y99.259 E157.18536
G1 X100.741 Y91.855 E157.73242
G1 X105.184 Y91.855 E157.96453
G1 X108.428 Y95.099 E158.20421
G1 Z1.350 F7800.000
G1 X109.800 Y90.200 F7800.000
G1 F1800
G1 X109.800 Y109.800 E158.78616
G1 X90.200 Y109.800 E159.36811
G1 X90.200 Y90.200 E159.95006
G1 X109.740 Y90.200 E160.53023
G1 X109.696 Y90.586 F7800.000
G1 X109.307 Y90.693 F7800.000
G1 F3600
G1 X109.307 Y109.307 E161.50275
G1 X90.693 Y109.307 E162.47527
G1 X90.693 Y90.693 E163.44778
G1 X109.247 Y90.693 E164.41717
G1 X108.679 Y91.321 F7800.000
G1 F3600
G1 X108.679 Y108.679 E165.32403
G1 X91.321 Y108.679 E166.23090
G1 X91.321 Y91.321 E167.13776
G1 X108.619 Y91.321 E168.04149
G1 X95.099 Y91.572 F7800.000
G1 F4800
G1 X91.855 Y94.816 E168.28117
G1 X91.855 Y99.259 E168.51329
G1 X99.259 Y91.855 E169.06035
G1 X103.702 Y91.855 E169.29246
G1 X91.855 Y103.702 E170.16778
G1 X91.855 Y108.145 E170.39990
G1 X108.145 Y91.855 E171.60348
G1 X108.145 Y96.298 E171.83560
G1 X96.298 Y108.145 E172.71092
G1 X100.741 Y108.145 E172.94304
G1 X108.145 Y100.741 E173.49009
G1 X108.145 Y105.184 E173.72221
G1 X104.901 Y108.428 E173.96189
G1 Z1.550 F7800.000
G1 X109.800 Y109.800 F7800.000
G1 F1800
G1 X90.200 Y109.800 E174.54384
G1 X90.200 Y90.200 E175.12579
G1 X109.800 Y90.200 E175.70774
G1 X109.800 Y109.740 E176.28790
G1 X109.414 Y109.696 F7800.000
G1 X109.307 Y109.307 F7800.000
G1 F3600
G1 X90.693 Y109.307 E177.26042
G1 X90.693 Y90.693 E178.23294
G1 X109.307 Y90.693 E179.20546
G1 X109.307 Y109.247 E180.17484
G1 X108.679 Y108.679 F7800.000
G1 F3600
G1 X91.321 Y108.679 E181.08171
G1 X91.321 Y91.321 E181.98857
G1 X108.679 Y91.321 E182.89544
G1 X108.679 Y108.619 E183.79917
G1 X108.428 Y95.099 F7800.000
G1 F4800
G1 X105.184 Y91.855 E184.03885
G1 X100.741 Y91.855 E184.27097
G1 X108.145 Y99.259 E184.81802
G1 X108.145 Y103.702 E185.05014
G1 X96.298 Y91.855 E185.92546
G1 X91.855 Y91.855 E186.15758
G1 X108.145 Y108.145 E187.36116
G1 X103.702 Y108.145 E187.59328
G1 X91.855 Y96.298 E188.46859
G1 X91.855 Y100.741 E188.70071
G1 X99.259 Y108.145 E189.24777
G1 X94.816 Y108.145 E189.47988
G1 X91.572 Y104.901 E189.71956
G1 Z1.750 F7800.000
G1 X90.200 Y109.800 F7800.000
G1 F1800
G1 X90.200 Y90.200 E190.30151
G1 X109.800 Y90.200 E190.88346
G1 X109.800 Y109.800 E191.46541
G1 X90.260 Y109.800 E192.04558
G1 X90.304 Y109.414 F7800.000
G1 X90.693 Y109.307 F7800.000
G1 F3600
G1 X90.693 Y90.693 E193.01810
G1 X109.307 Y90.693 E193.99062
G1 X109.307 Y109.307 E194.96313
G1 X90.753 Y109.307 E195.93252
G1 X91.321 Y108.679 F7800.000
G1 F3600
G1 X91.321 Y91.321 E196.83938
G1 X108.679 Y91.321 E197.74625
G1 X108.679 Y108.679 E198.65311
G1 X91.381 Y108.679 E199.55684
G1 X104.901 Y108.428 F7800.000
G1 F4800
G1 X108.145 Y105.184 E199.79652
G1 X108.145 Y100.741 E200.02864
G1 X100.741 Y108.145 E200.57570
G1 X96.298 Y108.145 E200.80781
G1 X108.145 Y96.298 E201.68313
G1 X108.145 Y91.855 E201.91525
G1 X91.855 Y108.145 E203.11883
G1 X91.855 Y103.702 E203.35095
G1 X103.702 Y91.855 E204.22627
G1 X99.259 Y91.855 E204.45839
G1 X91.855 Y99.259 E205.00544
G1 X91.855 Y94.816 E205.23756
G1 X95.099 Y91.572 E205.47724
G1 Z1.950 F7800.000
G1 X90.200 Y90.200 F7800.000
G1 F1800
G1 X109.800 Y90.200 E206.05919
